Delta/places/scalable/folder-favorites.svg

<svg xmlns="http://www.w3.org/2000/svg" width="192" height="192" viewBox="0 0 192 192">
  <g fill="none" fill-rule="evenodd">
    <rect width="152" height="152" x="20" y="20" fill="#FF837D" rx="10"/>
    <path fill="#000" fill-opacity=".25" d="M172 55.0690859L172 30.0025173C172 24.4770034 167.52172 20 161.997483 20L30.0025173 20C24.4770034 20 20 24.4782795 20 30.0025173L20 41.8667526C20.5977376 36.877596 24.8600859 33 29.9984742 33L63.5667725 33C72.0254898 33 75.1405393 46.256422 78.9328151 46.256422L161.997289 46.256422C167.120475 46.256422 171.374434 50.1039341 172 55.0690882L172 55.0690859zM96.28125 125.718151L93.3403133 123.061821C89.9882617 120.026 87.5533149 117.780794 86.035406 116.326127 84.5174971 114.87146 82.8256852 113.068969 80.9599185 110.918598 79.0941536 108.768228 77.8134359 106.82343 77.117727 105.084156 76.422018 103.344888 76.0741688 101.558208 76.0741688 99.7240649 76.0741688 96.6249992 77.1335277 94.0003145 79.2522778 91.8499441 81.3710279 89.6995736 84.0115194 88.6244006 87.1738331 88.6244006 90.8421185 88.6244006 93.8778938 90.0474223 96.28125 92.8935022 98.6846062 90.0474223 101.720382 88.6244006 105.388667 88.6244006 108.550981 88.6244006 111.19147 89.6995736 113.310219 91.8499441 115.428975 94.0003145 116.488331 96.6249992 116.488331 99.7240649 116.488331 102.190669 115.666144 104.752106 114.021739 107.408448 112.377334 110.06479 110.590653 112.373247 108.661648 114.333879 106.732636 116.294512 103.586182 119.235418 99.2221867 123.15669L96.28125 125.718151z"/>
  </g>
</svg>

<svg width="192" height="192" version="1.1" viewBox="0 0 192 192" xmlns="http://www.w3.org/2000/svg">
 <rect x="20" y="20" width="152" height="152" rx="10" style="fill-rule:evenodd;fill:#ff837d"/>
 <path d="m172 55.069v-25.067c0-5.5255-4.4783-10.003-10.003-10.003h-131.99c-5.5255 0-10.003 4.4783-10.003 10.003v11.864c0.59774-4.9892 4.8601-8.8668 9.9985-8.8668h33.568c8.4587 0 11.574 13.256 15.366 13.256h83.064c5.1232 0 9.3771 3.8475 10.003 8.8127zm-75.719 70.649-2.9409-2.6563c-3.3521-3.0358-5.787-5.281-7.3049-6.7357-1.5179-1.4547-3.2097-3.2572-5.0755-5.4075-1.8658-2.1504-3.1465-4.0952-3.8422-5.8344s-1.0436-3.526-1.0436-5.3601c0-3.0991 1.0594-5.7238 3.1781-7.8741 2.1188-2.1504 4.7592-3.2255 7.9216-3.2255 3.6683 0 6.7041 1.423 9.1074 4.2691 2.4034-2.8461 5.4391-4.2691 9.1074-4.2691 3.1623 0 5.8028 1.0752 7.9216 3.2255 2.1188 2.1504 3.1781 4.7751 3.1781 7.8741 0 2.4666-0.82219 5.028-2.4666 7.6844-1.6444 2.6563-3.4311 4.9648-5.3601 6.9254-1.929 1.9606-5.0755 4.9015-9.4395 8.8228z" style="fill-rule:evenodd;opacity:.25"/>
</svg>
